dist/images/icons/tik-tok.svg

<svg width="20" height="20" viewBox="0 0 20 20" fill="none" xmlns="http://www.w3.org/2000/svg">
<path d="M17.0496 6.00618C16.1351 6.00618 15.2913 5.70321 14.6137 5.19211C13.8365 4.60621 13.2782 3.74676 13.081 2.75617C13.0315 2.50709 13.0055 2.25393 13.0034 2H10.3909V9.13851L10.3878 13.0486C10.3878 14.094 9.70702 14.9803 8.76337 15.2921C8.48072 15.3855 8.18302 15.425 7.88577 15.4085C7.49266 15.3869 7.12428 15.2683 6.8041 15.0767C6.12274 14.6692 5.66077 13.93 5.64825 13.0843C5.62854 11.7626 6.69706 10.685 8.01785 10.685C8.27856 10.685 8.52895 10.7275 8.76337 10.8048V8.15231C8.51612 8.11569 8.26448 8.09659 8.01002 8.09659C6.56436 8.09659 5.21227 8.69752 4.24578 9.78013C3.51528 10.5983 3.0771 11.6421 3.0095 12.7366C2.92092 14.1744 3.44705 15.5412 4.46737 16.5496C4.61729 16.6977 4.77472 16.8351 4.93935 16.9618C5.81414 17.6351 6.8836 18 8.01002 18C8.26448 18 8.51612 17.9812 8.76337 17.9446C9.81562 17.7887 10.7865 17.3071 11.5527 16.5496C12.4941 15.6191 13.0143 14.3838 13.0199 13.069L13.0065 7.22995C13.4567 7.57719 13.9498 7.8648 14.4737 8.08564C15.2934 8.43149 16.1626 8.60676 17.0571 8.60644V6.00556C17.0577 6.00618 17.0502 6.00618 17.0496 6.00618Z" fill="#93AF99"/>
</svg>

<svg width="20" height="20" fill="none" xmlns="http://www.w3.org/2000/svg"><path d="M17.05 6.006A4.04 4.04 0 0113.004 2H10.39v7.139l-.003 3.91a2.365 2.365 0 01-2.502 2.36 2.354 2.354 0 01-1.082-.332 2.364 2.364 0 01-1.156-1.993 2.367 2.367 0 013.115-2.28V8.153a5.14 5.14 0 00-.753-.055A5.01 5.01 0 004.246 9.78a4.9 4.9 0 00-1.237 2.957 4.894 4.894 0 001.458 3.813A5.01 5.01 0 008.01 18a4.993 4.993 0 003.543-1.45 4.89 4.89 0 001.467-3.481l-.013-5.84a6.604 6.604 0 004.05 1.376v-2.6l-.007.001z" fill="#93AF99"/></svg>
